public/img/old-svg/alipay.svg

<svg width="46" height="15" viewBox="0 0 46 15" fill="none" xmlns="http://www.w3.org/2000/svg">
<path d="M2.61208 0C1.16793 0 0 1.07556 0 2.40342V12.597C0 13.9238 1.16793 15 2.61208 15H13.693C15.1357 15 16.3036 13.9239 16.3036 12.597V12.4927C16.2553 12.4741 12.067 10.8667 9.93749 9.92486C8.50152 11.5511 6.64899 12.5376 4.7252 12.5376C1.47235 12.5376 0.368271 9.91867 1.9082 8.19455C2.2438 7.81879 2.81553 7.45975 3.70206 7.25869C5.08904 6.9452 7.2957 7.45445 9.36502 8.0826C9.73701 7.4519 10.0503 6.75727 10.2835 6.01771H3.90772V5.42366H7.19547V4.3585H3.2135V3.76394H7.19547V2.24447C7.19547 2.24447 7.19547 1.98852 7.47687 1.98852H9.08437V3.76393H13.0203V4.35849H9.08437V5.42365H12.2971C11.9897 6.58246 11.5227 7.64911 10.9369 8.58545C11.9118 8.91001 12.7872 9.21779 13.4398 9.41878C15.6153 10.0886 16.2256 10.1705 16.3043 10.179V2.40347C16.3043 1.07561 15.1357 5.00005e-05 13.693 5.00005e-05H2.61208V0ZM4.4 8.12705C4.25967 8.12856 4.12008 8.13558 3.97827 8.14838C3.57138 8.18602 2.80661 8.35143 2.38859 8.69162C1.13526 9.69711 1.88519 11.5352 4.42153 11.5352C5.89612 11.5352 7.36922 10.668 8.52602 9.27944C7.03436 8.60967 5.7491 8.11267 4.4 8.12705Z" fill="#00A1E9"/>
<path d="M44.2639 9.57524L43.5284 11.0529L42.7817 9.57524H42.0529L43.1884 11.6183V13.0434H43.8579V11.6183L43.8616 11.6103L44.9926 9.57524H44.2639ZM38.8784 10.4693L39.3969 11.9076H38.341L38.8784 10.4693ZM39.5568 12.3447L39.8067 13.0432H40.5077L39.1268 9.57504H38.5909L37.2145 13.0432H37.917L38.1774 12.3447H39.5568ZM34.3229 11.2332H33.5784V10.0467H34.3229C34.6974 10.0467 34.921 10.3496 34.921 10.6423C34.921 10.9287 34.7117 11.2332 34.3229 11.2332ZM34.3612 9.57517H32.9037V13.0433H33.5784V11.71H34.3612C35.0877 11.71 35.5957 11.2708 35.5957 10.6423C35.5957 10.0138 35.0877 9.57524 34.3612 9.57524V9.57517ZM29.495 13.0434H30.1705V9.57524H29.495V13.0434ZM24.7519 9.57524V13.0435H27.0214V12.5709H25.4259V9.57524H24.7519ZM20.9102 10.4693L21.4288 11.9076H20.3728L20.9102 10.4693ZM21.5886 12.3447L21.8385 13.0432H22.5395L21.1586 9.57504H20.6228L19.2471 13.0432H19.9481L20.2092 12.3447H21.5886ZM26.3355 2.79539H23.4431V1.83647H26.7978V1.23924H23.4431V0.0241391H21.9481C21.7837 0.0241391 21.6517 0.151431 21.6517 0.307895V1.23927H18.3203V1.83648H21.6517V2.79541H18.8403V3.39207H24.4397C24.4397 3.39207 24.129 4.51278 22.5935 5.71726C21.2171 4.75356 20.7571 3.98609 20.7571 3.98609H19.2554C19.8625 4.96043 20.7263 5.74061 21.6562 6.35956C20.8021 6.87295 19.6944 7.36786 18.2617 7.76404V8.47901C18.2617 8.47901 20.4719 8.09336 22.6078 6.92922C24.7467 8.08436 26.8953 8.47901 26.8953 8.47901V7.80218C25.5204 7.3392 24.4307 6.83 23.5752 6.33892C24.8142 5.48975 25.9002 4.33722 26.3355 2.79541V2.79539ZM35.7323 0.143782H34.2261V1.59916H30.5149V2.18522H34.2261V7.41765C34.2133 7.53751 34.1113 7.63087 33.9829 7.63721H33.2182V8.24348H35.1695C35.4787 8.23177 35.7256 7.9947 35.7323 7.70087V2.18521H36.3432V1.59913H35.7323V0.143782ZM32.557 3.17253C32.5015 3.06857 32.3897 2.99697 32.2583 2.99591H31.0043L31.9814 5.84302H33.4659L32.557 3.17253ZM28.8511 0.0748716L27.1242 3.85385H28.4488V8.35044H29.898V2.38587H29.3727L30.4639 0.0749762L28.8511 0.0748716ZM45.6523 8.14419L45.1232 6.49043C45.0879 6.38487 44.9843 6.30852 44.862 6.30852H43.4586L43.8661 7.57878H42.2165V5.11783H45.4557V4.53226H42.2165V3.37391H45.4557V2.78834H37.3729V3.37391H40.6112V4.53226H37.3729V5.11783H40.6112V7.57878H37.3729V8.16434H45.653L45.6463 8.14419H45.6523ZM39.057 1.39121H43.7738V2.25519H45.4586V1.23156C45.4586 1.22944 45.4586 1.22838 45.4586 1.22572C45.4586 0.995539 45.2635 0.809378 45.0219 0.805661H42.2953V0H40.5317V0.805661H37.3721V2.25521H39.057V1.39121Z" fill="#6A6A6A"/>
</svg>

<svg width="46" height="15" viewBox="0 0 46 15" fill="none" xmlns="http://www.w3.org/2000/svg"><path d="M2.612 0C1.168 0 0 1.076 0 2.403v10.194C0 13.924 1.168 15 2.612 15h11.081c1.443 0 2.61-1.076 2.61-2.403v-.104c-.048-.019-4.236-1.626-6.366-2.568-1.435 1.626-3.288 2.613-5.212 2.613-3.253 0-4.357-2.62-2.817-4.343.336-.376.908-.735 1.794-.936 1.387-.314 3.594.195 5.663.824a9.992 9.992 0 00.918-2.065H3.909v-.594h3.287V4.358H3.213v-.594h3.982v-1.52s0-.255.282-.255h1.607v1.775h3.936v.594H9.084v1.066h3.213a11.55 11.55 0 01-1.36 3.161c.975.325 1.85.633 2.503.834 2.175.67 2.786.752 2.864.76V2.403C16.304 1.076 15.136 0 13.693 0H2.613zM4.4 8.127a6.02 6.02 0 00-.422.021c-.407.038-1.171.203-1.59.544-1.253 1.005-.503 2.843 2.034 2.843 1.474 0 2.947-.867 4.104-2.256C7.034 8.61 5.749 8.113 4.4 8.127z" fill="#00A1E9"/><path d="M44.264 9.575l-.736 1.478-.746-1.478h-.73l1.136 2.043v1.425h.67v-1.425l.004-.008 1.13-2.035h-.728zm-5.386.894l.519 1.439H38.34l.537-1.439zm.679 1.876l.25.698h.7l-1.38-3.468h-.536l-1.377 3.468h.703l.26-.698h1.38zm-5.234-1.112h-.745v-1.186h.745c.374 0 .598.303.598.595 0 .287-.21.591-.598.591zm.038-1.658h-1.457v3.468h.674V11.71h.783c.727 0 1.235-.44 1.235-1.068 0-.628-.508-1.067-1.235-1.067zm-4.866 3.468h.675V9.575h-.675v3.468zm-4.743-3.468v3.469h2.27v-.473h-1.596V9.575h-.674zm-3.842.894l.519 1.439h-1.056l.537-1.439zm.679 1.876l.25.698h.7l-1.38-3.468h-.536l-1.376 3.468h.701l.261-.698h1.38zm4.747-9.55h-2.893v-.959h3.355V1.24h-3.355V.024h-1.495a.29.29 0 00-.296.284v.931H18.32v.597h3.332v.96H18.84v.596h5.6s-.311 1.12-1.847 2.325c-1.376-.963-1.836-1.73-1.836-1.73h-1.502c.608.973 1.471 1.754 2.401 2.373-.854.513-1.962 1.008-3.394 1.404v.715s2.21-.386 4.346-1.55a16.373 16.373 0 004.287 1.55v-.677c-1.375-.463-2.464-.972-3.32-1.463 1.24-.85 2.325-2.002 2.76-3.544zM35.731.144h-1.506v1.455h-3.711v.586h3.711v5.233a.252.252 0 01-.243.22h-.765v.605h1.951a.57.57 0 00.563-.542V2.185h.611V1.6h-.61V.144zm-3.175 3.029a.34.34 0 00-.299-.177h-1.254l.977 2.847h1.485l-.909-2.67zM28.851.075l-1.727 3.779h1.325V8.35h1.449V2.386h-.525l1.09-2.311h-1.612zm16.801 8.07l-.529-1.655a.273.273 0 00-.261-.181h-1.403l.407 1.27h-1.65V5.118h3.24v-.586h-3.24V3.374h3.24v-.586h-8.083v.586h3.238v1.158h-3.238v.586h3.238v2.46h-3.238v.586h8.28l-.007-.02h.006zM39.057 1.39h4.717v.864h1.685V1.226a.432.432 0 00-.437-.42h-2.727V0h-1.763v.806h-3.16v1.45h1.685V1.39z" fill="#6A6A6A"/></svg>
